!!!OTL: Die Mordeltern.
!!!OTL-incipit: Es waren einst zwei Kaufmannssoehn',
!!!ARE: Europa, Mitteleuropa, Deutschland (BRD), Nordbayern, Franken, Eibelstadt
!!!YOR: 4, S. 261
!!    1855 gedruckt in Leipzig
!!!SCT: Q0085A
!!!TXL: @@DE
!!!YEM: Copyright 1995, estate of Helmut Schaffrath.
**kern	**text
*ICvox	*
*M3/4	*
*k[b-]	*
*F:	*
!LO:TX:a:t=Mäßig.	!
{8c	1._Es
=1	=1
8c	wa-
8f	-ren
4f	einſt
4f	ʒwei
=2	=2
8e	Kaufmannsſöhn',
8f	.
4g	.
8r}	.
{16c	dieſe
16c	.
=3	=3
8c	hatten
8g	.
4g	Luſt
4g	in
=4	=4
8f	Krieg
8g	ʒu
4a	gehn,
8r}	.
{16aL	in
16ccJ	.
=5	=5
8cc	Krieg
8a	und
(>8aL	frem-
16g	.
16aJ	.
8b-/)	.
8g	-de
=6	=6
4g	Län-
4a	-der.
8r}	.
{16a/L	in
16ccJ	.
=7	=7
8cc/	Krieg
8a	und
(>8aL	frem-
16g	.
16aJ	.
8b-/)	.
8g	-de
=8	=8
4g	Län-
4f	-der.
8r}	.
==	==
!!!AGN: Ballade, Habgier, Mord, Reue, Selbstmord
!! Zweistimmig notiert, Oberstimme kodiert.
!!!ONB: ESAC (Essen Associative Code) Database: BALLADE
!!!AMT: simple triple
!!!AIN: vox
!!!EED: Helmut Schaffrath
!!!EEV: 1.0
!!!RDF**kern: >= above
!!!source: Deutsche Volkslieder mit ihren Melodien. Herausgegeben vom Deutschen Volksliedarchiv. Vierter Band. Berlin 1959.
!!!page: 261
!!!ENC: Anna Maria Matuszewska
!!!EEV: 2025/02/25
*-	*-
